assets/images/svg/icons/social/nujij_hover.svg

<svg xmlns="http://www.w3.org/2000/svg" viewBox="0 0 40 40"><defs><style>.a{fill:#d31f27;}.b{fill:#971d1f;}.c{fill:#fff;}</style></defs><title>nujij_hover</title><rect class="a" width="40" height="40"/><rect class="b" width="40" height="40"/><path class="c" d="M20,31.2A11.2,11.2,0,1,0,8.8,20,11.2,11.2,0,0,0,20,31.2ZM15,12.64h2.45v2.58H15V12.64Zm0,4.16h2.45V27.23H15V16.8Zm3.83-4.16h2.45v2.58H18.82V12.64Zm0,4.16h2.45v6.37H18.82V16.8Zm3.65-4.16h2.59v2.58H22.47V12.64Zm0,4.16h2.59V27.23H22.47V16.8Z"/></svg>

<?xml version="1.0" encoding="utf-8"?>
<!-- Generator: Adobe Illustrator 19.2.0, SVG Export Plug-In . SVG Version: 6.00 Build 0)  -->
<svg version="1.1" id="Layer_1" xmlns:sketch="http://www.bohemiancoding.com/sketch/ns"
	 xmlns="http://www.w3.org/2000/svg" xmlns:xlink="http://www.w3.org/1999/xlink" x="0px" y="0px" viewBox="0 0 40 40"
	 style="enable-background:new 0 0 40 40;" xml:space="preserve">
<style type="text/css">
	.st0{fill:#D31F27;}
	.st1{fill-opacity:0.3;}
	.st2{fill:#FFFFFF;}
</style>
<title>nujij_hover</title>
<desc>Created with Sketch.</desc>
<g id="Page-1" sketch:type="MSPage">
	<g id="nujij_hover" sketch:type="MSLayerGroup">
		<g id="bg">
			<g sketch:type="MSShapeGroup">
				<rect id="path-1" class="st0" width="40" height="40"/>
			</g>
			<g>
				<rect id="path-1_1_" class="st1" width="40" height="40"/>
			</g>
		</g>
		<path id="icon" sketch:type="MSShapeGroup" class="st2" d="M20,31.2c6.2,0,11.2-5,11.2-11.2S26.2,8.8,20,8.8S8.8,13.8,8.8,20
			S13.8,31.2,20,31.2z M15,12.6h2.5v2.6H15V12.6z M15,16.8h2.5v10.4H15V16.8z M18.8,12.6h2.5v2.6h-2.5V12.6z M18.8,16.8h2.5v6.4
			h-2.5V16.8z M22.5,12.6h2.6v2.6h-2.6V12.6z M22.5,16.8h2.6v10.4h-2.6V16.8z"/>
	</g>
</g>
</svg>
